X:1
T:Undecided 
L:1/8
M:4/4
K:C
B2|:"C"BcBc A3c|"C6"Bc A4-Ac|"F"BcBc A3c|B2 cA-A2z A|
"D7"BcBc A3c|"Dm7"dd c2 "Ab7"_e2 "G7"dc-|1 "C"c4-"A7"c4|"Dm7"z4"G7"z4:|2"C"c8-|"C6"c4z2Bc|]
|"Gm7"ddc_B "C7"c2 Bc|"Gm7"ddc_B "C7"c2 Bc|"F6"ddcA c2 Ac|dc3-c2 Ac|
"Am7"ddcA "D7"c2Ac|"Am7"ddcA "D7"c2Ac|"G7"ddBGB2 GB|dG-G4z2|
